svgs/sharp-light/watch-smart.svg

<svg xmlns="http://www.w3.org/2000/svg" viewBox="0 0 384 512"><!--! Font Awesome Pro 6.5.2 by @fontawesome - https://fontawesome.com License - https://fontawesome.com/license (Commercial License) Copyright 2024 Fonticons, Inc. --><path d="M80 0H64V16 64H32 0V96 416v32H32 64l0 48v16H80l224 0h16V496 448h32 32V416 96 64H352 320V16 0H304 80zM96 480l0-32H288v32L96 480zM288 64H96V32H288V64zM32 96H352V416H32V96zm176 80V160H176v16 80 8.6l7.1 4.8 48 32 13.3 8.9 17.8-26.6-13.3-8.9L208 247.4V176z"/></svg>

<svg xmlns="http://www.w3.org/2000/svg" viewBox="0 0 384 512"><!--! Font Awesome Pro 6.6.0 by @fontawesome - https://fontawesome.com License - https://fontawesome.com/license (Commercial License) Copyright 2024 Fonticons, Inc. --><path d="M80 0L64 0l0 16 0 48L32 64 0 64 0 96 0 416l0 32 32 0 32 0 0 48 0 16 16 0 224 0 16 0 0-16 0-48 32 0 32 0 0-32 0-320 0-32-32 0-32 0 0-48 0-16L304 0 80 0zM96 480l0-32 192 0 0 32L96 480zM288 64L96 64l0-32 192 0 0 32zM32 96l320 0 0 320L32 416 32 96zm176 80l0-16-32 0 0 16 0 80 0 8.6 7.1 4.8 48 32 13.3 8.9 17.8-26.6-13.3-8.9L208 247.4l0-71.4z"/></svg>
